gama.ui.shared/icons_svg/light/layer/layer.agents.svg

<svg height="24.75" viewBox="-672.056 -4080.723 24.75 24.75" width="24.75" xmlns="http://www.w3.org/2000/svg"><g fill="none"><path d="m-667.8407-4080.348h16.32c2.1208 0 3.84 1.719 3.84 3.84v16.32c0 2.1207-1.7192 3.84-3.84 3.84h-16.32c-2.1207 0-3.84-1.7193-3.84-3.84v-16.32c0-2.121 1.7193-3.84 3.84-3.84z" fill="#66727e"/><path d="m-656.9952-4066.748c.3262.362.5145.837.5145 1.339v1.461c0 1.1045-.8954 2-2 2h-7.2c-1.1045 0-2-.8955-2-2v-1.4608c0-.5022.1884-.9772.51465-1.3392h-.11465c-.2209 0-.4-.179-.4-.4s.1791-.4.4-.4h1.3293l1.6337-.912c-.5942-.581-.963-1.3914-.963-2.288 0-1.7674 1.4327-3.2 3.2-3.2 1.76735 0 3.2 1.4326 3.2 3.2 0 .068-.0021.1357-.0063.2027l.4299-.4407c-.2671-.387-.4236-.8563-.4236-1.362 0-1.3256 1.07455-2.4 2.4-2.4 1.3255 0 2.4 1.0744 2.4 2.4 0 .505-.156.9737-.42255 1.3604l.0031.0032 1.45235 1.4914c.3636.3734.5671.874.5671 1.3953v.5497h.4c.22095 0 .4.179.4.4s-.17905.4-.4.4zm-1.2144-.8h4.9289v-.5497c0-.3128-.1221-.6133-.34026-.8373l-1.43954-1.478c-.39766.292-.88874.465-1.4202.465-.5308 0-1.0213-.1724-1.41875-.464l-1.44039 1.477c-.16796.1723-.19066.1964-.23506.2522-.07634.0961-.1033.1678-.1056.3138zm-.47664.65-1.86266-1.04c-.45495.2487-.9769.39-1.5318.39-.5547 0-1.0765-.141-1.5313-.3896l-2.6535 1.481c-.3798.212-.6152.6129-.6152 1.0478v1.4608c0 .6627.5373 1.2 1.2 1.2h7.2c.6628 0 1.2-.5373 1.2-1.2v-1.461c0-.435-.2353-.8356-.615-1.0476l-.5274-.2944c-.1062-.013-.1995-.0676-.26314-.147zm-3.39446-1.45c1.3255 0 2.4-1.0746 2.4-2.4 0-1.3256-1.0745-2.4-2.4-2.4-1.32545 0-2.4 1.0744-2.4 2.4 0 1.3254 1.07455 2.4 2.4 2.4zm5.6-2.4c.8837 0 1.6-.7164 1.6-1.6 0-.8837-.7163-1.6-1.6-1.6-.8836 0-1.6.7163-1.6 1.6 0 .8836.7164 1.6 1.6 1.6z" fill="#fff"/></g></svg>

<?xml version="1.0" encoding="UTF-8" standalone="no"?>
<!DOCTYPE svg PUBLIC "-//W3C//DTD SVG 1.1//EN" "http://www.w3.org/Graphics/SVG/1.1/DTD/svg11.dtd">
<svg version="1.1" xmlns="http://www.w3.org/2000/svg" xmlns:xl="http://www.w3.org/1999/xlink" xmlns:dc="http://purl.org/dc/elements/1.1/" viewBox="-672.0557 -4080.723 24.75 24.75" width="24.75" height="24.75">
  <defs/>
  <g id="SOURCES" stroke-dasharray="none" fill="none" stroke="none" fill-opacity="1" stroke-opacity="1">
    <title>SOURCES</title>
    <g id="SOURCES_Calque_2">
      <title>Calque 2</title>
      <g id="Graphic_8748">
        <title>views/view.other</title>
        <path d="M -667.8407 -4080.348 L -651.5207 -4080.348 C -649.3999 -4080.348 -647.6807 -4078.629 -647.6807 -4076.508 L -647.6807 -4060.188 C -647.6807 -4058.0673 -649.3999 -4056.348 -651.5207 -4056.348 L -667.8407 -4056.348 C -669.9614 -4056.348 -671.6807 -4058.0673 -671.6807 -4060.188 L -671.6807 -4076.508 C -671.6807 -4078.629 -669.9614 -4080.348 -667.8407 -4080.348 Z" fill="#66727e"/>
      </g>
      <g id="Graphic_8750">
        <path d="M -656.9952 -4066.748 C -656.669 -4066.386 -656.4807 -4065.911 -656.4807 -4065.409 L -656.4807 -4063.948 C -656.4807 -4062.8435 -657.3761 -4061.948 -658.4807 -4061.948 L -665.6807 -4061.948 C -666.7852 -4061.948 -667.6807 -4062.8435 -667.6807 -4063.948 L -667.6807 -4065.4088 C -667.6807 -4065.911 -667.4923 -4066.386 -667.16605 -4066.748 L -667.2807 -4066.748 C -667.5016 -4066.748 -667.6807 -4066.927 -667.6807 -4067.148 C -667.6807 -4067.369 -667.5016 -4067.548 -667.2807 -4067.548 L -665.9514 -4067.548 L -664.3177 -4068.46 C -664.9119 -4069.041 -665.2807 -4069.8514 -665.2807 -4070.748 C -665.2807 -4072.5154 -663.848 -4073.948 -662.0807 -4073.948 C -660.31335 -4073.948 -658.8807 -4072.5154 -658.8807 -4070.748 C -658.8807 -4070.68 -658.8828 -4070.6123 -658.887 -4070.5453 L -658.4571 -4070.986 C -658.7242 -4071.373 -658.8807 -4071.8423 -658.8807 -4072.348 C -658.8807 -4073.6736 -657.80615 -4074.748 -656.4807 -4074.748 C -655.1552 -4074.748 -654.0807 -4073.6736 -654.0807 -4072.348 C -654.0807 -4071.843 -654.2367 -4071.3743 -654.50325 -4070.9876 L -654.50015 -4070.9844 L -653.0478 -4069.493 C -652.6842 -4069.1196 -652.4807 -4068.619 -652.4807 -4068.0977 L -652.4807 -4067.548 L -652.0807 -4067.548 C -651.85975 -4067.548 -651.6807 -4067.369 -651.6807 -4067.148 C -651.6807 -4066.927 -651.85975 -4066.748 -652.0807 -4066.748 L -656.9952 -4066.748 Z M -658.2096 -4067.548 L -653.2807 -4067.548 L -653.2807 -4068.0977 C -653.2807 -4068.4105 -653.4028 -4068.711 -653.62096 -4068.935 L -655.0605 -4070.413 C -655.45816 -4070.121 -655.94924 -4069.948 -656.4807 -4069.948 C -657.0115 -4069.948 -657.502 -4070.1204 -657.89945 -4070.412 L -659.33984 -4068.935 C -659.5078 -4068.7627 -659.5305 -4068.7386 -659.5749 -4068.6828 C -659.65124 -4068.5867 -659.6782 -4068.515 -659.6805 -4068.369 Z M -658.68624 -4066.898 L -660.5489 -4067.938 C -661.00385 -4067.6893 -661.5258 -4067.548 -662.0807 -4067.548 C -662.6354 -4067.548 -663.1572 -4067.689 -663.612 -4067.9376 L -666.2655 -4066.4566 C -666.6453 -4066.2446 -666.8807 -4065.8437 -666.8807 -4065.4088 L -666.8807 -4063.948 C -666.8807 -4063.2853 -666.3434 -4062.748 -665.6807 -4062.748 L -658.4807 -4062.748 C -657.8179 -4062.748 -657.2807 -4063.2853 -657.2807 -4063.948 L -657.2807 -4065.409 C -657.2807 -4065.844 -657.516 -4066.2446 -657.8957 -4066.4566 L -658.4231 -4066.751 C -658.5293 -4066.764 -658.6226 -4066.8186 -658.68624 -4066.898 Z M -662.0807 -4068.348 C -660.7552 -4068.348 -659.6807 -4069.4226 -659.6807 -4070.748 C -659.6807 -4072.0736 -660.7552 -4073.148 -662.0807 -4073.148 C -663.40615 -4073.148 -664.4807 -4072.0736 -664.4807 -4070.748 C -664.4807 -4069.4226 -663.40615 -4068.348 -662.0807 -4068.348 Z M -656.4807 -4070.748 C -655.597 -4070.748 -654.8807 -4071.4644 -654.8807 -4072.348 C -654.8807 -4073.2317 -655.597 -4073.948 -656.4807 -4073.948 C -657.3643 -4073.948 -658.0807 -4073.2317 -658.0807 -4072.348 C -658.0807 -4071.4644 -657.3643 -4070.748 -656.4807 -4070.748 Z" fill="white"/>
      </g>
    </g>
  </g>
</svg>
